icons/svg/clippy.svg

﻿<?xml version="1.0" encoding="utf-8"?>
<!DOCTYPE svg PUBLIC "-//W3C//DTD SVG 1.1//EN" "http://www.w3.org/Graphics/SVG/1.1/DTD/svg11.dtd">
<svg xmlns="http://www.w3.org/2000/svg" xmlns:xlink="http://www.w3.org/1999/xlink" version="1.1" baseProfile="full" width="24" height="24" viewBox="0 0 24.00 24.00" enable-background="new 0 0 24.00 24.00" xml:space="preserve">
	<path fill="#000000" fill-opacity="1" stroke-linejoin="round" d="M 15,15.5C 15,16.8807 13.8807,18 12.5,18C 11.1193,18 10,16.8807 10,15.5L 10,13.75C 10,13.3358 10.3358,13 10.75,13C 11.1642,13 11.5,13.3358 11.5,13.75L 11.5,15.5C 11.5,16.0523 11.9477,16.5 12.5,16.5C 13.0523,16.5 13.5,16.0523 13.5,15.5L 13.5,11.8862C 12.6261,11.6116 12,10.8708 12,10C 12,8.89544 13.0073,8.00001 14.25,8.00001C 15.4926,8.00001 16.5,8.89544 16.5,10C 16.5,10.8708 15.8739,11.6117 15,11.8862L 15,15.5 Z M 8.24999,8.00003C 9.49263,8.00003 10.5,8.89546 10.5,10C 10.5,10.8708 9.87388,11.6117 8.99998,11.8862L 8.99999,17.25C 8.99999,19.0449 10.4551,20.5 12.25,20.5C 14.0449,20.5 15.5,19.0449 15.5,17.25L 15.5,13.75C 15.5,13.3358 15.8358,13 16.25,13C 16.6642,13 17,13.3358 17,13.75L 17,17.25C 17,19.8734 14.8733,22 12.25,22C 9.62664,22 7.49999,19.8734 7.49999,17.25L 7.49999,11.8862C 6.62609,11.6117 5.99999,10.8708 5.99999,10C 5.99999,8.89546 7.00734,8.00003 8.24999,8.00003 Z M 10.0563,6.12824L 9.63073,7.5875C 9.22495,7.37291 8.75326,7.25001 8.24999,7.25001C 7.3389,7.25001 6.53129,7.6528 6.03088,8.27318L 4.83116,7.37339C 5.46396,6.56837 6.4101,5.99474 7.49999,5.8121L 7.49999,5.75001C 7.49999,3.67894 9.17893,2.00002 11.25,2.00002C 13.3211,2.00002 15,3.67894 15,5.75001L 15,5.81209C 16.0899,5.99473 17.036,6.56837 17.6688,7.37339L 16.4691,8.27318C 15.9687,7.6528 15.1611,7.25001 14.25,7.25001C 13.7467,7.25001 13.275,7.37291 12.8693,7.58749L 12.4436,6.12824C 12.7746,5.98175 13.129,5.87427 13.5,5.8121L 13.5,5.75001C 13.5,4.50737 12.4926,3.50001 11.25,3.50001C 10.0074,3.50001 8.99999,4.50737 8.99999,5.75001L 8.99999,5.8121C 9.371,5.87427 9.72534,5.98175 10.0563,6.12824 Z M 14.25,9.25C 13.6977,9.25 13.25,9.58579 13.25,10C 13.25,10.4142 13.6977,10.75 14.25,10.75C 14.8023,10.75 15.25,10.4142 15.25,10C 15.25,9.58579 14.8023,9.25 14.25,9.25 Z M 8.25,9.25C 7.69771,9.25 7.25,9.58579 7.25,10C 7.25,10.4142 7.69771,10.75 8.25,10.75C 8.80228,10.75 9.25,10.4142 9.25,10C 9.25,9.58579 8.80228,9.25 8.25,9.25 Z "/>
</svg>

<svg xmlns="http://www.w3.org/2000/svg" version="1.1" baseProfile="full" width="24" height="24" viewBox="0 0 24.00 24.00" xml:space="preserve"><path fill="#000" fill-opacity="1" stroke-linejoin="round" d="M15 15.5c0 1.38-1.12 2.5-2.5 2.5S10 16.88 10 15.5v-1.75c0-.414.336-.75.75-.75s.75.336.75.75v1.75c0 .552.448 1 1 1s1-.448 1-1v-3.614C12.626 11.612 12 10.87 12 10c0-1.105 1.007-2 2.25-2s2.25.895 2.25 2c0 .87-.626 1.612-1.5 1.886V15.5zM8.25 8c1.243 0 2.25.895 2.25 2 0 .87-.626 1.612-1.5 1.886v5.364c0 1.795 1.455 3.25 3.25 3.25s3.25-1.455 3.25-3.25v-3.5c0-.414.336-.75.75-.75s.75.336.75.75v3.5c0 2.623-2.127 4.75-4.75 4.75S7.5 19.873 7.5 17.25v-5.364C6.626 11.612 6 10.87 6 10c0-1.105 1.007-2 2.25-2zm1.806-1.872l-.425 1.46c-.405-.215-.877-.338-1.38-.338-.91 0-1.72.403-2.22 1.023l-1.2-.9c.634-.805 1.58-1.378 2.67-1.56V5.75C7.5 3.68 9.18 2 11.25 2 13.32 2 15 3.68 15 5.75v.062c1.09.183 2.036.756 2.67 1.56l-1.2.9c-.5-.62-1.31-1.022-2.22-1.022-.503 0-.975.123-1.38.337l-.426-1.46c.33-.145.685-.253 1.056-.315V5.75c0-1.243-1.007-2.25-2.25-2.25S9 4.507 9 5.75v.062c.37.062.725.17 1.056.316zM14.25 9.25c-.552 0-1 .336-1 .75s.448.75 1 .75 1-.336 1-.75-.448-.75-1-.75zm-6 0c-.552 0-1 .336-1 .75s.448.75 1 .75 1-.336 1-.75-.448-.75-1-.75z"/></svg>
